src/icons/mapCity.svg

<svg width="21" height="21" viewBox="0 0 21 21" fill="none" xmlns="http://www.w3.org/2000/svg">
<path d="M19.7344 0.710938C20.0208 0.710938 20.2552 0.815104 20.4375 1.02344C20.6458 1.20573 20.75 1.4401 20.75 1.72656V17.4688C20.75 17.9375 20.5417 18.25 20.125 18.4062L14.6172 20.6328C14.5391 20.6849 14.4219 20.7109 14.2656 20.7109C14.1094 20.7109 13.9922 20.6979 13.9141 20.6719L7.3125 18.2891L2.15625 20.6328C2.07812 20.6849 1.94792 20.7109 1.76562 20.7109C1.47917 20.7109 1.23177 20.6198 1.02344 20.4375C0.841146 20.2552 0.75 20.0208 0.75 19.7344V4.22656C0.75 3.8099 0.945312 3.51042 1.33594 3.32812L6.84375 0.828125C6.97396 0.75 7.10417 0.710938 7.23438 0.710938C7.3125 0.710938 7.42969 0.736979 7.58594 0.789062L14.1875 3.13281L19.3438 0.828125C19.474 0.75 19.6042 0.710938 19.7344 0.710938ZM8.25 16.5312L13.25 18.2891V4.92969L8.25 3.13281V16.5312ZM2.74219 18.1719L6.25781 16.5703V3.28906L2.74219 4.85156V18.1719ZM18.7578 3.28906L15.2422 4.85156V18.25L18.7578 16.8047V3.28906Z"/>
</svg>

<svg width="21" height="21"><path d="M19.734.71c.287 0 .521.105.703.313a.892.892 0 0 1 .313.704v15.742c0 .468-.208.781-.625.937l-5.508 2.227c-.078.052-.195.078-.351.078-.157 0-.274-.013-.352-.04L7.313 18.29l-5.157 2.344c-.078.052-.208.078-.39.078a1.09 1.09 0 0 1-.743-.273.952.952 0 0 1-.273-.704V4.227c0-.417.195-.717.586-.899l5.508-2.5a.754.754 0 0 1 .39-.117c.079 0 .196.026.352.078l6.601 2.344L19.345.828a.754.754 0 0 1 .39-.117ZM8.25 16.532l5 1.758V4.93l-5-1.796V16.53Zm-5.508 1.64 3.516-1.6V3.288L2.742 4.852v13.32ZM18.758 3.29l-3.516 1.563V18.25l3.516-1.445V3.289Z"/></svg>
